X: 27
T: Drunken-man Dance Song (e)
C: Anon.
%%abc-version 2.0
%%abcx-abcm2ps-target-version 5.9.1 (29 Sep 2008)
%%abc-creator hum2abc beta
%%abcx-conversion-date 2020/08/10 20:56:09
%%abc-copyright Electronic Copyright 2000 David Huron
%%abc-edited-by David Huron
%%abcx-initial-encoding-date August 28, 2000
%%humdrum-veritas 2767519777
%%humdrum-veritas-data 3296101002
%%linebreak <none>
%%barnumbers 0
L: 1/8
M: 2/4
Q: 1/4=96
K: G clef=bass
G, G, G, G, | 
G, G,G,2 | 
B,2G, G, | 
B,2B, G, | 
A,2A, G, | 
G, G, G, z | 
A,> G, G, A, | 
G, G, G, z | 
G, G, G, G, | 
G, G,G,2 ]|:  
D2B, B, [I:setbarnb 12]| 
B,2B, G, | 
A,2A, G, | 
G, G,G,2 | 
A,> G, G, A, | 
G, G, G, z | 
G, G, G, G, | 
G, G,G,2 | 
B,2G, G, | 
B,2G, G, | 
A,2A, G, | 
G, G,G,2 | 
A,> G, G, A, | 
G, G, G, z | 
G, G, G, G, | 
G, G,G,2 | 
B,2G, G, | 
B,2B, G, | 
A,2A, G, | 
G, G,G,2 | 
A,> G, G, A, | 
G, G, G, z | 
G, G, G, G, | 
G, G,G,2 :|]  
B,> A, A, D [I:setbarnb 36]| 
D3z | 
C2A,3/ G,/ | 
G,2A, G,/ z/ | 
D3B, | 
B,2B, G, | 
A,2A, G, | 
G, G,G,2 | 
A, G, E, A, | 
G, G, G, z | 
G, G, G, G, | 
G, G,G,2 | 
B,2G, G, | 
B,2B, G, | 
A,2A, G, | 
G, G,G,2 | 
A, G, E, A, | 
G, G, G, z | 
G,> E,G,2 | 
G, G, G, z |]  


